**kern	**text	**text
*staff1	*staff1	*staff1
*I"Sopran Alt	*	*
*clefG2	*	*
*k[b-e-]	*	*
*met(c)	*	*
*M4/4	*	*
*^	*	*
4.dd/	4.f\	du	.
8ee-/	8f\	nicht	.
=1	=1	=1	=1
4ff/	4f\	die	.
4dd/	4f\	B&auml;u-	.
4.b-/	4.f\	-me	.
8cc/	8en\	rau-	.
=2	=2	=2	=2
4b-/	4f\	-schen	.
4a/	4f\	drau-	.
4a/	4f\	-ßen	.
8g/L	4f\	.	.
8f/J	.	durch	.
=3	=3	=3	=3
4f/	4f\	die	.
4b-/	4f\	stil-	.
4cc/	4f\	-le	.
4dd/	4f\	.	.
*v	Rund?	*	*
=4	=4	=4
!!linebreak:original
*^	*	*
2ee-/	2f\	.	.
4.dd/	4.f\	.	.
8ee-/	8f\	nicht,	.
*v	-ab-	*	*
=5	=5	=5
!!linebreak:original
*^	*	*
4ff/	4f\	-lau-	.
4dd/	4f\	-schen	.
4.b-/	4.f\	von	.
8cc/	8en\	dem	.
=6	=6	=6	=6
4b-/	4f\	S&ouml;l-	.
4a/	4f\	-ler	.
4a/	4f\	in	.
4a/	4f\	den	.
=7	=7	=7	=7
4.dd/	4.f#\	Grund,	.
8cc/	8f#\	lockt's	.
4b-/	4f#\	dich	.
4a/	4f#\	nicht,	.
=8	=8	=8	=8
2b-/	2g\	hin-	.
4.dd/	2r	-ab-	.
8dd/	.	-zu-	.
=9	=9	=9	=9
4cc/	1r	.	.
4b-/	.	.	.
4a/	.	-lau-	nicht
8b-/L	.	-schen	.
8g/J	.	von	.
*v	dem	*	*
=10	=10	=10
!!pagebreak:original
*^	*	*
4f/	1c	S&ouml;l-	von
4en/	.	.	dem
8g/L	.	.	S&ouml;l-
8e/J	.	.	-ler
8d/L	.	.	.
8c/J	.	-ler	in
=11	=11	=11	=11
(2f/	4c\	in	den
.	4e-\	den	.
[2ff/	4d\	.	.
.	4d-\	Grund,	Grund,
=12	=12	=12	=12
4ff/])	2c\	.	.
4f/	.	.	.
4.g/	2en\	.	.
8a/	.	die	.
=13	=13	=13	=13
(2g/	(2en\	.	.
4f/)	4f\)	vie-	.
4r	4r	-len	.
*v	-che	*	*
=14	=14	=14
!!linebreak:original
*^	*	*
8f/	8d-\	-hen	.
8f/	8d-\	.	.
*v	*v	*	*
(a-q/	wun-	.
*^	*	*
8g-/)	8d-\	.	.
8f/	8d-\	-bar	.
4f/	4c\	im	.
4f/	4c\	-den-	.
=15	=15	=15	=15
2b-/	2en\	.	.
4a/	4f\	-schein	.
4r	4r	.	.
=16	=16	=16	=16
8f/	8d-\	.	.
8f/	8d-\	.	.
*v	*v	*	*
(a-q/	die	.
*^	*	*
8g-/)	8d-\	-len	.
8f/	8d-\	Schl&ouml;s-	.
4dd-/	4g-\	-ser	.
4dd-/	4gn\	se-	.
=17	=17	=17	=17
(2dd-/	2.a-\	-hen	.
4cc/)	.	in	.
4r	4r	den	.
*v	Fluß	*	*
=18	=18	=18
!!pagebreak:original
*^	*	*
8a-/	8g-\	-hen	.
8a-/	8g-\	.	.
8b-/	8g-\	Stein,	.
8a-/	8g-\	.	.
4a-/	4f\	in	.
4a-/	4f\	den	.
=19	=19	=19	=19
2ff/	2gn\	.	.
4een/	4g\	Fluß	.
8.cc/	8.en\	vom	vom
16cc/	16e\	-hen	-hen
=20	=20	=20	=20
4.ff/	4.f\	.	.
8cc/	8f\	Stein,	Stein,
4cc/	4f\	.	vom
4dd/	4f\	.	-hen
=21	=21	=21	=21
2ee-/	2e-\	.	.
4r	4r	.	Stein?
8.b-/	8.e-\	vom	.
16cc/	16e-\	ho-	.
*v	*v	*	*
=22	=22	=22
!!linebreak:original
*^	*	*
4.dd/	4.d\	Kennst	.
8cc/	8d\	du	.
4b-/	4e-\	.	.
4a/	4e-\	noch	.
=23	=23	=23	=23
[1b-	4d\	die	.
.	4f\	ir-	.
.	4.g-\	-ren	.
.	8f\	Lie-	.
=24	=24	=24	=24
4b-/]	(1e-	-der	.
4a/	.	aus	.
4.ee-/	.	der	.
8a/	.	.	.
=25	=25	=25	=25
2b-;/	2f\)	-ten,	.
=||	=||	=||	=||
4.dd/	4.f\	sch&ouml;-	.
8ee-/	8f\	-nen	.
*v	Zeit?	*	*
=26	=26	=26
!!linebreak:original
*^	*	*
4ff/	4f\	.	.
4dd/	4f\	-wa-	.
4.b-/	4.f\	-chen	.
8cc/	8en\	-le	.
=27	=27	=27	=27
4b-/	4f\	.	.
4a/	4f\	.	.
4a/	4f\	wie-	.
8g/L	4f\	-der	.
8f/J	.	in	.
=28	=28	=28	=28
4f/	4f\	.	.
4b-/	4f\	Wal-	.
4cc/	4f\	-des-	.
4dd/	4f\	-sam-	.
=29	=29	=29	=29
2ee-/	2f\	.	.
4.dd/	4.f\	-keit,	.
8ee-/	8f\	er-	.
=30	=30	=30	=30
4ff/	4f\	.	.
4dd/	4f\	-wa-	.
4.b-/	4.f\	-chen	.
8cc/	8en\	al-	.
*v	*v	*	*
=31	=31	=31
!!linebreak:original
*^	*	*
4b-/	4f\	-der	.
4a/	4f\	nachts	.
4a/	4f\	.	.
4a/	4f\	in	-der
=32	=32	=32	=32
4.dd/	4.f#\	.	.
8cc/	8f#\	.	.
4b-/	4f#\	Wal-	nachts
4a/	4f#\	.	Wal-
=33	=33	=33	=33
2b-/	2g\	.	-des-
4.dd/	2r	.	.
8dd/	.	-des-	-ein-
=34	=34	=34	=34
4cc/	1r	-ein-	-sam-
4b-/	.	-sam-	.
4a/	.	.	.
8b-/L	.	-keit,	-keit,
8g/J	.	.	.
=35	=35	=35	=35
4fn/	2.c\	.	.
4en/	.	wenn	.
8g/L	.	die	.
8e/J	.	.	.
8d/L	4c\	B&auml;u-	.
8c/J	.	-me	.
*v	-mend	*	*
=36	=36	=36
!!pagebreak:original
*^	*	*
(2f/	4c\	lau-	.
.	4e-\	-schen	.
[2ff/	4d\	.	.
.	4d-\	und	.
=37	=37	=37	=37
4ff/])	2c\	der	.
4f/	.	.	.
4.g/	2en\	Flie-	.
8a/	.	duf-	.
=38	=38	=38	=38
(2g/	(2en\	-tet	.
4f/)	4f\)	.	.
4r	4r	schwül	.
=39	=39	=39	=39
8f/	8d-\	.	.
8f/	8d-\	.	.
*v	*v	*	*
(a-q/	im	.
*^	*	*
8g-/	8d-\)	die	.
8f/	8d-\	Ni-	.
4f/	4c\	-xen	.
4f/	4c\	.	.
*v	rau-	*	*
=40	=40	=40
!!linebreak:original
*^	*	*
2b-/	2en\	her-	.
4a/	4f\	.	.
4r	4r	hier	.
=41	=41	=41	=41
8f/	8d-\	ist's	.
8f/	8d-\	so	.
*v	*v	*	*
(a-q/	kühl,	.
*^	*	*
8g-/)	8d-\	komm	.
8f/	8d-\	her-	.
4dd-/	4g-\	.	.
4dd-/	4gn\	hier	.
=42	=42	=42	=42
(2dd-/	2.a-\	ist's	.
4cc/)	.	so	.
4r	4r	.	.
=43	=43	=43	=43
8a-/	8g-\	kühl,	.
8a-/	8g-\	.	.
8b-/	8g-\	.	komm
8a-/	8g-\	.	her-
4a-/	4f\	.	.
4a-/	4f\	.	.
*v	komm	*	*
=44	=44	=44
!!linebreak:original
*^	*	*
2ff/	2g\	.	komm
4een/	4g\	.	her-
8.cc/	8.en\	.	.
16cc/	16e\	komm	-ab,
=45	=45	=45	=45
4.ff/	4.f\	her-	.
8cc/	8f\	-ab,	.
4cc/	4f\	komm	.
4dd/	4f\	her-	.
=46	=46	=46	=46
2ee-/	2e-\	-ab,	.
4r	4r	hier	.
8.b-/	8.e-\	ist's	.
16cc/	16e-\	so	.
=47	=47	=47	=47
4.dd/	4.d\	.	.
8cc/	8d\	kühl,	.
4b-/	4e-\	.	.
4a/	4e-\	.	.
*v	*v	*	*
=48	=48	=48
!!linebreak:original
*^	*	*
(2cc/	(2e-\	.	.
4b-/)	4d\)	.	.
4r	8.f\	.	.
.	16g-\	.	.
*v	*v	*	*
=49	=49	=49
!!pagebreak:original
*^	*	*
4r	2.g-\	.	.
8.b-/	.	.	.
16cc-/	.	.	.
4cc-/	.	.	.
4r	8.g-\	.	.
.	16gn\	.	.
=50	=50	=50	=50
4r	2.g\	.	.
8.cc/	.	.	.
16dd-/	.	.	.
4dd-/	.	.	.
8.ddn/	8.a-\	.	.
16ee-/	16g\	.	.
=51	=51	=51	=51
4.ee-/	4.g\	.	.
8cc/	8g-\	.	.
4b-/	4f\	.	.
8a/L	4e-\	.	.
8ff/J	.	.	.
=52	=52	=52	=52
(2ff/	(2e-\	.	.
4b-/)	4d\)	.	.
4r	4r	.	.
*v	*v	*	*
==	==	==
*-	*-	*-
